X: 393
T:Marvels of Maeve, The
M:4/4
L:1/8
C:Brad Hurley
R:reel
Z:Brad Hurley
K:A dor
A3B eBB2|eBdB AGED|A3B eBde|gedB GABG|
A3B eBB2|eBdB AGED|BEED E3B|EFGA BAGB:|
|A3B cBAG|EADE G3B |A3B ce~e2 |dBGA BGcB|
A3B cBAc|BGGF G3A|BEE2 BGG2|EFGA BAGB:||
<end>
<start>
